src/assets/img/mobile-footer-logo.svg

<svg width="42" height="38" viewBox="0 0 42 38" fill="none" xmlns="http://www.w3.org/2000/svg">
<path d="M25.4454 10.5894H16.8888H9.25187H0.695312V18.04V37.1955H9.25187V18.04H16.8888V37.1955H25.4454V18.04H33.0823V37.1955H41.6455V18.04V18.01L37.6738 10.5894H25.4454Z" fill="white"/>
<path d="M36.3086 7.69284L32.3369 0.272217H0.80957V7.72285H36.3086V7.69284Z" fill="white"/>
</svg>

<svg width="42" height="38" fill="none" xmlns="http://www.w3.org/2000/svg"><path d="M25.45 10.59H.7V37.2h8.55V18.04h7.64V37.2h8.56V18.04h7.63V37.2h8.57V18l-3.98-7.42H25.45ZM36.3 7.7 32.35.26H.8v7.45h35.5V7.7Z" fill="#fff"/></svg>
